X:161
T:Trip to Ankerwick
M:6/8
L:1/8
B:Thompson's Compleat Collection of 200 Favourite Country Dances, vol. 3 (London, 1773)
Z:Transcribed and edited by Flynn Titford-Mock, 2007
Z:abc's:AK/Fiddler's Companion
K:A
c/d/ | ec(A A)af | ec(A A)af | edc edc | BBB B2 c/d/ | ed(A A)af |
ec(A A)af | edc dcB | AAA A2::C/D/ | ECE FDF | GEG {B/c/}d2 C/D/ |
ECE FDF | GEe c2C/D/ | ECE FDF | GEG {B/c/}d2B | ECE FDF | GEG A2 :|

